misc/icons/Mountain/16x16/apps/livewallpaper-config.svg

<svg xmlns="http://www.w3.org/2000/svg" width="16" height="16" version="1.1">
 <circle style="fill:#c149c0" cx="8" cy="8" r="8"/>
 <path style="fill:#ffffff" d="M 7,4 6.91211,5.054688 a 3.1429,3.1429 0 0 0 -0.919921,0.53125 l -0.957032,-0.451172 -1,1.730468 0.869141,0.605469 A 3.1429,3.1429 0 0 0 4.857422,8 3.1429,3.1429 0 0 0 4.902342,8.53125 l -0.867188,0.603516 1,1.730468 0.955078,-0.449218 a 3.1429,3.1429 0 0 0 0.921875,0.527343 L 7,12 h 2 l 0.08789,-1.054688 a 3.1429,3.1429 0 0 0 0.919921,-0.53125 l 0.957032,0.451172 1,-1.730468 -0.869141,-0.605469 A 3.1429,3.1429 0 0 0 11.142578,8 3.1429,3.1429 0 0 0 11.097656,7.46875 l 0.867188,-0.603516 -1,-1.730468 -0.955078,0.449218 A 3.1429,3.1429 0 0 0 9.087891,5.056641 L 9,4 Z M 8,7 A 0.99991251,0.99991251 0 0 1 9,8 0.99991251,0.99991251 0 0 1 8,9 0.99991251,0.99991251 0 0 1 7,8 0.99991251,0.99991251 0 0 1 8,7 Z"/>
</svg>

<svg xmlns="http://www.w3.org/2000/svg" width="16" height="16" version="1">
 <circle style="fill:#1d83af" cx="8" cy="8" r="8"/>
 <path style="fill:#d88bd7" d="M 7,4 6.9118,5.0536 A 3.1429,3.1429 0 0 0 5.99328,5.58486 l -0.95759,-0.4509 -1,1.7321 0.86941,0.6038 a 3.1429,3.1429 0 0 0 -0.048,0.53013 3.1429,3.1429 0 0 0 0.0457,0.53237 l -0.86719,0.60156 1,1.7321 0.95536,-0.44978 a 3.1429,3.1429 0 0 0 0.92075,0.5279 l 0.0882,1.0558 2,0 0.0882,-1.0536 a 3.1429,3.1429 0 0 0 0.91854,-0.53126 l 0.95758,0.4509 1,-1.7321 -0.86942,-0.6038 a 3.1429,3.1429 0 0 0 0.048,-0.53013 3.1429,3.1429 0 0 0 -0.0457,-0.53237 l 0.86719,-0.60156 -1,-1.7321 -0.95536,0.44978 a 3.1429,3.1429 0 0 0 -0.921,-0.528 l -0.088,-1.056 -2,0 z M 8,6.8572 A 1.1429,1.1429 0 0 1 9.143,8.0002 1.1429,1.1429 0 0 1 8,9.1432 1.1429,1.1429 0 0 1 6.857,8.0002 1.1429,1.1429 0 0 1 8,6.8572 Z"/>
</svg>
